mono-glyphs/music-w.svg

<svg xmlns="http://www.w3.org/2000/svg" width="1024" height="1024" fill="none" viewBox="0 0 1024 1024">
  <path fill="#fff" d="M864 199.5V336c0 8.667-3.083 16.167-9.25 22.5-6.167 6.333-13.583 9.5-22.25 9.5-2.333 0-10.333-1.917-24-5.75A10969.68 10969.68 0 0 1 758.25 348c-19.833-5.667-41.167-12-64-19s-44.5-13.667-65-20-38.583-11.833-54.25-16.5c-15.667-4.667-26-7.833-31-9.5v553c0 26-5.167 50.417-15.5 73.25S504.167 952 486.5 969s-38.083 30.417-61.25 40.25c-23.167 9.83-47.583 14.75-73.25 14.75-26.667 0-51.667-5-75-15s-43.667-23.667-61-41-31-37.667-41-61-15-48.333-15-75c0-25.667 4.917-50.083 14.75-73.25S198 715.167 215 697.5s36.917-31.667 59.75-42C297.583 645.167 322 640 348 640c25 0 48.583 3.917 70.75 11.75S461.333 672 480 689V32c0-8.667 3.167-16.167 9.5-22.5C495.833 3.167 503.333 0 512 0c2 0 9.25 1.667 21.75 5s27.583 7.667 45.25 13a18746.52 18746.52 0 0 0 57.5 17.25 4788.346 4788.346 0 0 1 59 18c18.667 5.833 35 10.917 49 15.25s23.333 7.167 28 8.5c13.667 4 26.083 10 37.25 18 11.167 8 20.75 17.333 28.75 28 8 10.667 14.25 22.5 18.75 35.5s6.75 26.667 6.75 41ZM800 293v-93.5c0-14-4.167-26.75-12.5-38.25S768.167 142 754.5 138L544 75v141l256 77ZM480 832v-2.5c0-17.333-3.5-33.583-10.5-48.75-7-15.167-16.333-28.417-28-39.75-11.667-11.333-25.25-20.333-40.75-27-15.5-6.667-31.75-10-48.75-10-17.667 0-34.25 3.417-49.75 10.25s-29 16-40.5 27.5-20.667 25.083-27.5 40.75C227.417 798.167 224 814.667 224 832c0 17.667 3.417 34.25 10.25 49.75s16 29 27.5 40.5 25 20.667 40.5 27.5C317.75 956.583 334.333 960 352 960c17.333 0 33.833-3.417 49.5-10.25 15.667-6.833 29.25-16 40.75-27.5s20.667-25 27.5-40.5C476.583 866.25 480 849.667 480 832Z"/>
</svg>

<svg width="1024" height="1024" viewBox="0 0 1024 1024" fill="none" xmlns="http://www.w3.org/2000/svg">
<mask id="mask0_47_1309" style="mask-type:luminance" maskUnits="userSpaceOnUse" x="160" y="0" width="704" height="1024">
<path d="M864 0H160V1024H864V0Z" fill="white"/>
</mask>
<g mask="url(#mask0_47_1309)">
<path d="M864 199.5V336C864 344.667 860.917 352.167 854.75 358.5C848.583 364.833 841.167 368 832.5 368C830.167 368 822.167 366.083 808.5 362.25C794.833 358.417 778.083 353.667 758.25 348C738.417 342.333 717.083 336 694.25 329C671.417 322 649.75 315.333 629.25 309C608.75 302.667 590.667 297.167 575 292.5C559.333 287.833 549 284.667 544 283V836C544 862 538.833 886.417 528.5 909.25C518.167 932.083 504.167 952 486.5 969C468.833 986 448.417 999.417 425.25 1009.25C402.083 1019.08 377.667 1024 352 1024C325.333 1024 300.333 1019 277 1009C253.667 999 233.333 985.333 216 968C198.667 950.667 185 930.333 175 907C165 883.667 160 858.667 160 832C160 806.333 164.917 781.917 174.75 758.75C184.583 735.583 198 715.167 215 697.5C232 679.833 251.917 665.833 274.75 655.5C297.583 645.167 322 640 348 640C373 640 396.583 643.917 418.75 651.75C440.917 659.583 461.333 672 480 689V32C480 23.3334 483.167 15.8334 489.5 9.5C495.833 3.16669 503.333 0 512 0C514 0 521.25 1.66669 533.75 5C546.25 8.33337 561.333 12.6667 579 18C596.667 23.3334 615.833 29.0834 636.5 35.25C657.167 41.4167 676.833 47.4167 695.5 53.25C714.167 59.0834 730.5 64.1667 744.5 68.5C758.5 72.8334 767.833 75.6667 772.5 77C786.167 81 798.583 87 809.75 95C820.917 103 830.5 112.333 838.5 123C846.5 133.667 852.75 145.5 857.25 158.5C861.75 171.5 864 185.167 864 199.5ZM800 293V199.5C800 185.5 795.833 172.75 787.5 161.25C779.167 149.75 768.167 142 754.5 138L544 75V216L800 293ZM480 832V829.5C480 812.167 476.5 795.917 469.5 780.75C462.5 765.583 453.167 752.333 441.5 741C429.833 729.667 416.25 720.667 400.75 714C385.25 707.333 369 704 352 704C334.333 704 317.75 707.417 302.25 714.25C286.75 721.083 273.25 730.25 261.75 741.75C250.25 753.25 241.083 766.833 234.25 782.5C227.417 798.167 224 814.667 224 832C224 849.667 227.417 866.25 234.25 881.75C241.083 897.25 250.25 910.75 261.75 922.25C273.25 933.75 286.75 942.917 302.25 949.75C317.75 956.583 334.333 960 352 960C369.333 960 385.833 956.583 401.5 949.75C417.167 942.917 430.75 933.75 442.25 922.25C453.75 910.75 462.917 897.25 469.75 881.75C476.583 866.25 480 849.667 480 832Z" fill="white"/>
</g>
</svg>
